X:1
T:Title
%%score { 1 | 2 }
L:1/8
Q:1/4=100
M:2/4
K:G
V:1 treble nm="Grand Piano"
V:2 bass 
V:1
 [B,D][DB] [^C_B][D=B] | [B,D]2 .[B,G]2 | [CE][EG] [Ec][^Dc] | [DB]4 | [B,D][DB] [^C_B][D=B] | %5
w: Florence~W.~Williams * * *|||||
 [B,D]2 .[B,G]2 | [CE][CE] [CF][CG] | [CA]4 | [Fd][Fd] [Ec][Ec] | [DB]2 .[B,G]2 | %10
w: |||||
 [Fd][Fd] [Ec][Ec] | [DB]4 | [B,D][B,G] [B,D][B,G] |[M:5/8] [CE]2 [Ec]3 |[M:2/4] BB AA | [B,G]4 |] %16
w: ||||||
V:2
 [G,,G,][G,,G,] [G,,G,][G,,G,] | [G,,G,]2 .[G,,G,]2 | [C,G,][C,G,] [C,G,][C,G,] | [G,,G,]4 | %4
 [G,,G,][G,,G,] [G,,G,][G,,G,] | [G,,G,]2 .[G,,G,]2 | [A,,G,][A,,G,] [A,,F,][A,,E,] | [D,F,]4 | %8
 D,,D, F,D, | G,,D, G,D, | D,,D, F,D, | G,,D, G,D, | [G,,G,][G,,G,] [G,,G,][G,,G,] | %13
[M:5/8] [C,G,]2 [C,G,]3 |[M:2/4] [D,G,D][D,G,D] [D,F,C][D,F,C] | [G,,G,]4 |] %16

